badges/podhero-dark.svg

<svg width="117" height="40" viewBox="0 0 117 40" fill="none" xmlns="http://www.w3.org/2000/svg">
<rect x="0.5" y="0.5" width="116" height="39" rx="4.5" fill="black"/>
<path d="M10.525 29.475C8.685 27.635 8 24.635 8 20C8 15.365 8.685 12.365 10.525 10.525C12.365 8.685 15.365 8 20 8C24.635 8 27.635 8.685 29.475 10.525C31.315 12.365 32 15.365 32 20C32 24.635 31.315 27.635 29.475 29.475C27.635 31.315 24.635 32 20 32C15.365 32 12.365 31.315 10.525 29.475Z" fill="#0067FF"/>
<path fill-rule="evenodd" clip-rule="evenodd" d="M20 11.675C15.4 11.675 11.675 15.405 11.675 20C11.675 22.875 13.135 25.41 15.35 26.905V20C15.35 17.43 17.435 15.35 20 15.35C22.565 15.35 24.6501 17.435 24.6501 20C24.6501 21.915 23.49 23.56 21.835 24.275V21.835C21.835 20.825 21.01 20 20 20C18.99 20 18.1651 20.825 18.1651 21.835V32H21.84V28.1201C26.545 27.0051 28.3301 22.94 28.3301 20C28.3301 15.4 24.6001 11.675 20.0051 11.675H20Z" fill="white"/>
<path d="M39.7486 14.5V8.31818H40.4972V13.8359H43.3707V14.5H39.7486ZM44.4332 14.5V9.86364H45.1456V14.5H44.4332ZM44.7955 9.09091C44.6566 9.09091 44.5369 9.04362 44.4363 8.94904C44.3377 8.85446 44.2884 8.74077 44.2884 8.60795C44.2884 8.47514 44.3377 8.36145 44.4363 8.26687C44.5369 8.17229 44.6566 8.125 44.7955 8.125C44.9343 8.125 45.053 8.17229 45.1516 8.26687C45.2522 8.36145 45.3026 8.47514 45.3026 8.60795C45.3026 8.74077 45.2522 8.85446 45.1516 8.94904C45.053 9.04362 44.9343 9.09091 44.7955 9.09091ZM49.7344 10.902L49.0945 11.0831C49.0543 10.9764 48.9949 10.8728 48.9164 10.7722C48.8399 10.6696 48.7353 10.585 48.6025 10.5186C48.4697 10.4522 48.2996 10.419 48.0924 10.419C47.8086 10.419 47.5722 10.4844 47.383 10.6152C47.1959 10.744 47.1023 10.908 47.1023 11.1072C47.1023 11.2843 47.1667 11.4242 47.2955 11.5268C47.4243 11.6294 47.6255 11.715 47.8992 11.7834L48.5874 11.9524C49.0019 12.053 49.3108 12.207 49.5141 12.4142C49.7173 12.6195 49.8189 12.8841 49.8189 13.2081C49.8189 13.4737 49.7425 13.7112 49.5895 13.9205C49.4386 14.1297 49.2273 14.2947 48.9557 14.4155C48.684 14.5362 48.3681 14.5966 48.0079 14.5966C47.535 14.5966 47.1436 14.494 46.8337 14.2887C46.5238 14.0835 46.3276 13.7836 46.2451 13.3892L46.9212 13.2202C46.9856 13.4697 47.1073 13.6568 47.2864 13.7816C47.4676 13.9064 47.704 13.9688 47.9958 13.9688C48.3278 13.9688 48.5914 13.8983 48.7866 13.7575C48.9838 13.6146 49.0824 13.4435 49.0824 13.2443C49.0824 13.0833 49.0261 12.9485 48.9134 12.8398C48.8007 12.7292 48.6276 12.6467 48.3942 12.5923L47.6215 12.4112C47.1969 12.3106 46.885 12.1547 46.6858 11.9434C46.4886 11.7301 46.39 11.4634 46.39 11.1435C46.39 10.8819 46.4634 10.6504 46.6103 10.4492C46.7592 10.248 46.9615 10.09 47.217 9.97532C47.4746 9.86062 47.7664 9.80327 48.0924 9.80327C48.5512 9.80327 48.9114 9.90388 49.173 10.1051C49.4366 10.3063 49.6237 10.572 49.7344 10.902ZM52.9076 9.86364V10.4673H50.5049V9.86364H52.9076ZM51.2052 8.75284H51.9175V13.1719C51.9175 13.3731 51.9467 13.524 52.0051 13.6246C52.0654 13.7232 52.1419 13.7897 52.2345 13.8239C52.329 13.8561 52.4287 13.8722 52.5333 13.8722C52.6118 13.8722 52.6762 13.8681 52.7265 13.8601C52.7768 13.85 52.817 13.842 52.8472 13.8359L52.9921 14.4759C52.9438 14.494 52.8764 14.5121 52.7899 14.5302C52.7033 14.5503 52.5937 14.5604 52.4608 14.5604C52.2596 14.5604 52.0624 14.5171 51.8692 14.4306C51.6781 14.344 51.5191 14.2122 51.3923 14.0352C51.2675 13.8581 51.2052 13.6347 51.2052 13.3651V8.75284ZM55.8732 14.5966C55.4265 14.5966 55.0411 14.498 54.7172 14.3008C54.3952 14.1016 54.1467 13.8239 53.9716 13.4677C53.7985 13.1095 53.712 12.6929 53.712 12.218C53.712 11.7431 53.7985 11.3246 53.9716 10.9624C54.1467 10.5981 54.3902 10.3144 54.7021 10.1112C55.016 9.90589 55.3822 9.80327 55.8008 9.80327C56.0423 9.80327 56.2807 9.84351 56.5162 9.92401C56.7516 10.0045 56.9659 10.1353 57.1591 10.3164C57.3523 10.4955 57.5062 10.733 57.6209 11.0288C57.7356 11.3246 57.793 11.6888 57.793 12.1214V12.4233H54.2191V11.8075H57.0685C57.0685 11.5459 57.0162 11.3125 56.9116 11.1072C56.8089 10.902 56.6621 10.74 56.4709 10.6213C56.2817 10.5025 56.0584 10.4432 55.8008 10.4432C55.517 10.4432 55.2715 10.5136 55.0643 10.6545C54.859 10.7933 54.7011 10.9744 54.5904 11.1978C54.4797 11.4212 54.4244 11.6606 54.4244 11.9162V12.3267C54.4244 12.6768 54.4847 12.9737 54.6055 13.2172C54.7282 13.4586 54.8983 13.6428 55.1156 13.7695C55.3329 13.8943 55.5855 13.9567 55.8732 13.9567C56.0604 13.9567 56.2294 13.9305 56.3803 13.8782C56.5333 13.8239 56.6651 13.7434 56.7757 13.6367C56.8864 13.5281 56.9719 13.3932 57.0323 13.2322L57.7205 13.4254C57.6481 13.6589 57.5263 13.8641 57.3553 14.0412C57.1842 14.2163 56.973 14.3531 56.7214 14.4517C56.4699 14.5483 56.1871 14.5966 55.8732 14.5966ZM59.589 11.7109V14.5H58.8766V9.86364H59.5648V10.5881H59.6252C59.7338 10.3526 59.8989 10.1635 60.1202 10.0206C60.3416 9.87571 60.6273 9.80327 60.9775 9.80327C61.2914 9.80327 61.5661 9.86766 61.8015 9.99645C62.0369 10.1232 62.2201 10.3164 62.3509 10.576C62.4817 10.8336 62.5471 11.1596 62.5471 11.554V14.5H61.8347V11.6023C61.8347 11.238 61.7401 10.9543 61.551 10.7511C61.3618 10.5458 61.1022 10.4432 60.7722 10.4432C60.5448 10.4432 60.3416 10.4925 60.1625 10.5911C59.9854 10.6897 59.8455 10.8336 59.7429 11.0227C59.6403 11.2119 59.589 11.4413 59.589 11.7109ZM68.1229 14.5966C67.7044 14.5966 67.3371 14.497 67.0212 14.2978C66.7073 14.0985 66.4618 13.8198 66.2847 13.4616C66.1096 13.1035 66.0221 12.6849 66.0221 12.206C66.0221 11.723 66.1096 11.3014 66.2847 10.9412C66.4618 10.581 66.7073 10.3013 67.0212 10.1021C67.3371 9.90288 67.7044 9.80327 68.1229 9.80327C68.5415 9.80327 68.9077 9.90288 69.2216 10.1021C69.5376 10.3013 69.7831 10.581 69.9581 10.9412C70.1352 11.3014 70.2238 11.723 70.2238 12.206C70.2238 12.6849 70.1352 13.1035 69.9581 13.4616C69.7831 13.8198 69.5376 14.0985 69.2216 14.2978C68.9077 14.497 68.5415 14.5966 68.1229 14.5966ZM68.1229 13.9567C68.4409 13.9567 68.7025 13.8752 68.9077 13.7122C69.113 13.5492 69.2649 13.3349 69.3635 13.0692C69.4621 12.8036 69.5114 12.5159 69.5114 12.206C69.5114 11.8961 69.4621 11.6073 69.3635 11.3397C69.2649 11.072 69.113 10.8557 68.9077 10.6907C68.7025 10.5257 68.4409 10.4432 68.1229 10.4432C67.805 10.4432 67.5434 10.5257 67.3381 10.6907C67.1329 10.8557 66.9809 11.072 66.8823 11.3397C66.7837 11.6073 66.7344 11.8961 66.7344 12.206C66.7344 12.5159 66.7837 12.8036 66.8823 13.0692C66.9809 13.3349 67.1329 13.5492 67.3381 13.7122C67.5434 13.8752 67.805 13.9567 68.1229 13.9567ZM72.0235 11.7109V14.5H71.3112V9.86364H71.9994V10.5881H72.0597C72.1684 10.3526 72.3334 10.1635 72.5548 10.0206C72.7761 9.87571 73.0619 9.80327 73.412 9.80327C73.7259 9.80327 74.0006 9.86766 74.2361 9.99645C74.4715 10.1232 74.6546 10.3164 74.7854 10.576C74.9162 10.8336 74.9816 11.1596 74.9816 11.554V14.5H74.2693V11.6023C74.2693 11.238 74.1747 10.9543 73.9855 10.7511C73.7964 10.5458 73.5368 10.4432 73.2068 10.4432C72.9794 10.4432 72.7761 10.4925 72.597 10.5911C72.42 10.6897 72.2801 10.8336 72.1775 11.0227C72.0748 11.2119 72.0235 11.4413 72.0235 11.7109Z" fill="white"/>
<path d="M39.5412 30.5V17.7727H43.8416C44.8401 17.7727 45.6563 17.9529 46.2901 18.3134C46.9281 18.6697 47.4005 19.1523 47.707 19.7614C48.0136 20.3704 48.1669 21.0498 48.1669 21.7997C48.1669 22.5496 48.0136 23.2311 47.707 23.8443C47.4046 24.4574 46.9364 24.9463 46.3026 25.3109C45.6687 25.6713 44.8567 25.8516 43.8665 25.8516H40.7841V24.4844H43.8168C44.5004 24.4844 45.0493 24.3663 45.4636 24.1301C45.8779 23.894 46.1783 23.575 46.3647 23.1731C46.5553 22.7671 46.6506 22.3093 46.6506 21.7997C46.6506 21.2901 46.5553 20.8344 46.3647 20.4325C46.1783 20.0307 45.8758 19.7158 45.4574 19.4879C45.0389 19.2559 44.4838 19.1399 43.7919 19.1399H41.0824V30.5H39.5412ZM53.976 30.6989C53.1143 30.6989 52.3582 30.4938 51.7077 30.0836C51.0614 29.6735 50.556 29.0997 50.1914 28.3622C49.831 27.6248 49.6507 26.763 49.6507 25.777C49.6507 24.7827 49.831 23.9147 50.1914 23.1731C50.556 22.4315 51.0614 21.8556 51.7077 21.4455C52.3582 21.0353 53.1143 20.8303 53.976 20.8303C54.8378 20.8303 55.5918 21.0353 56.2381 21.4455C56.8886 21.8556 57.394 22.4315 57.7544 23.1731C58.119 23.9147 58.3013 24.7827 58.3013 25.777C58.3013 26.763 58.119 27.6248 57.7544 28.3622C57.394 29.0997 56.8886 29.6735 56.2381 30.0836C55.5918 30.4938 54.8378 30.6989 53.976 30.6989ZM53.976 29.3814C54.6306 29.3814 55.1692 29.2136 55.5918 28.878C56.0144 28.5424 56.3272 28.1012 56.5302 27.5543C56.7332 27.0075 56.8347 26.415 56.8347 25.777C56.8347 25.139 56.7332 24.5444 56.5302 23.9934C56.3272 23.4424 56.0144 22.997 55.5918 22.6573C55.1692 22.3176 54.6306 22.1477 53.976 22.1477C53.3214 22.1477 52.7828 22.3176 52.3603 22.6573C51.9377 22.997 51.6249 23.4424 51.4219 23.9934C51.2189 24.5444 51.1174 25.139 51.1174 25.777C51.1174 26.415 51.2189 27.0075 51.4219 27.5543C51.6249 28.1012 51.9377 28.5424 52.3603 28.878C52.7828 29.2136 53.3214 29.3814 53.976 29.3814ZM63.8945 30.6989C63.099 30.6989 62.3968 30.4979 61.7878 30.0961C61.1788 29.69 60.7023 29.1183 60.3584 28.3809C60.0146 27.6393 59.8426 26.763 59.8426 25.7521C59.8426 24.7495 60.0146 23.8795 60.3584 23.142C60.7023 22.4046 61.1808 21.8349 61.794 21.4331C62.4072 21.0312 63.1156 20.8303 63.9193 20.8303C64.5408 20.8303 65.0317 20.9338 65.3922 21.141C65.7568 21.344 66.0343 21.576 66.2249 21.837C66.4196 22.0939 66.5709 22.3052 66.6786 22.4709H66.8029V17.7727H68.2695V30.5H66.8526V29.0334H66.6786C66.5709 29.2074 66.4176 29.427 66.2187 29.6921C66.0198 29.9531 65.736 30.1872 65.3673 30.3944C64.9986 30.5974 64.5076 30.6989 63.8945 30.6989ZM64.0934 29.3814C64.6817 29.3814 65.1788 29.2281 65.5848 28.9215C65.9908 28.6108 66.2995 28.182 66.5108 27.6351C66.7221 27.0841 66.8277 26.4482 66.8277 25.7273C66.8277 25.0147 66.7242 24.3912 66.517 23.8567C66.3099 23.3181 66.0033 22.8997 65.5973 22.6014C65.1912 22.2989 64.6899 22.1477 64.0934 22.1477C63.4719 22.1477 62.954 22.3072 62.5397 22.6262C62.1296 22.9411 61.8209 23.3699 61.6138 23.9126C61.4108 24.4512 61.3093 25.0561 61.3093 25.7273C61.3093 26.4067 61.4128 27.024 61.62 27.5792C61.8313 28.1302 62.142 28.5694 62.5522 28.8967C62.9665 29.2198 63.4802 29.3814 64.0934 29.3814ZM72.3758 24.7578V30.5H70.9092V17.7727H72.3758V22.446H72.5001C72.7239 21.953 73.0594 21.5615 73.5069 21.2715C73.9585 20.9773 74.5592 20.8303 75.3091 20.8303C75.9595 20.8303 76.5292 20.9608 77.0181 21.2218C77.5069 21.4786 77.886 21.8743 78.1553 22.4087C78.4288 22.939 78.5655 23.6143 78.5655 24.4347V30.5H77.0989V24.5341C77.0989 23.7759 76.9021 23.1897 76.5085 22.7754C76.119 22.3569 75.5784 22.1477 74.8865 22.1477C74.4059 22.1477 73.975 22.2492 73.5939 22.4522C73.2169 22.6552 72.9186 22.9515 72.699 23.3409C72.4836 23.7303 72.3758 24.2027 72.3758 24.7578ZM85.0007 30.6989C84.081 30.6989 83.2876 30.4959 82.6206 30.0898C81.9577 29.6797 81.446 29.108 81.0856 28.3746C80.7293 27.6372 80.5511 26.7796 80.5511 25.8018C80.5511 24.8241 80.7293 23.9624 81.0856 23.2166C81.446 22.4667 81.9473 21.8826 82.5895 21.4641C83.2358 21.0415 83.9898 20.8303 84.8516 20.8303C85.3487 20.8303 85.8397 20.9131 86.3244 21.0788C86.8091 21.2446 87.2504 21.5138 87.6481 21.8867C88.0458 22.2554 88.3627 22.7443 88.5989 23.3533C88.835 23.9624 88.9531 24.7122 88.9531 25.603V26.2244H81.5952V24.9567H87.4616C87.4616 24.4181 87.3539 23.9375 87.1385 23.5149C86.9272 23.0923 86.6248 22.7588 86.2312 22.5144C85.8417 22.2699 85.3819 22.1477 84.8516 22.1477C84.2674 22.1477 83.762 22.2927 83.3352 22.5827C82.9126 22.8686 82.5874 23.2415 82.3596 23.7013C82.1317 24.1612 82.0178 24.6542 82.0178 25.1804V26.0256C82.0178 26.7464 82.142 27.3575 82.3906 27.8588C82.6433 28.356 82.9934 28.7351 83.4409 28.9961C83.8883 29.253 84.4083 29.3814 85.0007 29.3814C85.386 29.3814 85.734 29.3275 86.0447 29.2198C86.3596 29.108 86.631 28.9422 86.8588 28.7227C87.0867 28.4989 87.2628 28.2214 87.3871 27.8899L88.804 28.2876C88.6548 28.7682 88.4042 29.1908 88.052 29.5554C87.6999 29.9158 87.2649 30.1976 86.747 30.4006C86.2291 30.5994 85.647 30.6989 85.0007 30.6989ZM90.9341 30.5V20.9545H92.351V22.3963H92.4505C92.6245 21.924 92.9393 21.5408 93.3951 21.2466C93.8508 20.9525 94.3645 20.8054 94.9363 20.8054C95.044 20.8054 95.1786 20.8075 95.3402 20.8116C95.5018 20.8158 95.624 20.822 95.7069 20.8303V22.3217C95.6571 22.3093 95.5432 22.2907 95.3651 22.2658C95.1911 22.2368 95.0067 22.2223 94.812 22.2223C94.348 22.2223 93.9337 22.3197 93.5691 22.5144C93.2086 22.705 92.9228 22.9701 92.7115 23.3098C92.5043 23.6454 92.4007 24.0286 92.4007 24.4595V30.5H90.9341ZM100.783 30.6989C99.9209 30.6989 99.1648 30.4938 98.5144 30.0836C97.8681 29.6735 97.3626 29.0997 96.998 28.3622C96.6376 27.6248 96.4574 26.763 96.4574 25.777C96.4574 24.7827 96.6376 23.9147 96.998 23.1731C97.3626 22.4315 97.8681 21.8556 98.5144 21.4455C99.1648 21.0353 99.9209 20.8303 100.783 20.8303C101.644 20.8303 102.398 21.0353 103.045 21.4455C103.695 21.8556 104.201 22.4315 104.561 23.1731C104.926 23.9147 105.108 24.7827 105.108 25.777C105.108 26.763 104.926 27.6248 104.561 28.3622C104.201 29.0997 103.695 29.6735 103.045 30.0836C102.398 30.4938 101.644 30.6989 100.783 30.6989ZM100.783 29.3814C101.437 29.3814 101.976 29.2136 102.398 28.878C102.821 28.5424 103.134 28.1012 103.337 27.5543C103.54 27.0075 103.641 26.415 103.641 25.777C103.641 25.139 103.54 24.5444 103.337 23.9934C103.134 23.4424 102.821 22.997 102.398 22.6573C101.976 22.3176 101.437 22.1477 100.783 22.1477C100.128 22.1477 99.5895 22.3176 99.1669 22.6573C98.7443 22.997 98.4315 23.4424 98.2285 23.9934C98.0255 24.5444 97.924 25.139 97.924 25.777C97.924 26.415 98.0255 27.0075 98.2285 27.5543C98.4315 28.1012 98.7443 28.5424 99.1669 28.878C99.5895 29.2136 100.128 29.3814 100.783 29.3814Z" fill="white"/>
<rect x="0.5" y="0.5" width="116" height="39" rx="4.5" stroke="#A6A6A6"/>
</svg>

<svg xmlns="http://www.w3.org/2000/svg" width="117" height="40" fill="none" viewBox="0 0 117 40">
  <rect width="116" height="39" x=".5" y=".5" fill="#000" rx="4.5"/>
  <rect width="116" height="39" x=".5" y=".5" stroke="#A6A6A6" rx="4.5"/>
  <circle cx="20" cy="20" r="12" fill="#0067FF"/>
  <path fill="#fff" fill-rule="evenodd" d="M18.165 31.86V21.836A1.84 1.84 0 0 1 20 20a1.84 1.84 0 0 1 1.835 1.835v2.44A4.659 4.659 0 0 0 24.65 20a4.65 4.65 0 0 0-9.3 0v6.905A8.325 8.325 0 0 1 20 11.675h.005A8.325 8.325 0 0 1 28.33 20c0 2.94-1.785 7.005-6.49 8.12v3.74a12.092 12.092 0 0 1-3.675 0Z" clip-rule="evenodd"/>
  <path fill="#fff" d="M39.749 14.5V8.318h.748v5.518h2.874v.664h-3.622Zm4.684 0V9.864h.713V14.5h-.713Zm.362-5.41a.506.506 0 0 1-.359-.141.456.456 0 0 1-.148-.341c0-.133.05-.247.148-.341.1-.095.22-.142.36-.142.138 0 .257.047.356.142.1.094.15.208.15.341 0 .133-.05.246-.15.341a.496.496 0 0 1-.357.142Zm4.94 1.812-.64.181c-.04-.107-.1-.21-.179-.31a.865.865 0 0 0-.313-.254 1.14 1.14 0 0 0-.51-.1c-.284 0-.52.065-.71.196-.187.129-.28.293-.28.492a.51.51 0 0 0 .192.42c.13.102.33.188.604.256l.688.17c.415.1.724.254.927.461.203.206.305.47.305.794 0 .266-.077.503-.23.713-.15.209-.362.374-.633.495a2.33 2.33 0 0 1-.948.18c-.473 0-.864-.102-1.174-.307-.31-.205-.506-.505-.589-.9l.676-.169c.065.25.186.437.365.562.182.124.418.187.71.187.332 0 .595-.07.79-.211.198-.143.296-.314.296-.514a.54.54 0 0 0-.169-.404c-.112-.11-.285-.193-.519-.248l-.773-.18c-.424-.101-.736-.257-.935-.469a1.133 1.133 0 0 1-.296-.8c0-.261.073-.493.22-.694a1.5 1.5 0 0 1 .607-.474 2.13 2.13 0 0 1 .875-.172c.46 0 .82.1 1.081.302.264.201.45.467.561.797Zm3.173-1.038v.603h-2.403v-.603h2.403Zm-1.703-1.111h.712v4.419c0 .201.03.352.088.453.06.098.137.165.23.199a.92.92 0 0 0 .298.048c.079 0 .143-.004.194-.012l.12-.024.145.64a1.491 1.491 0 0 1-.531.085c-.201 0-.399-.044-.592-.13a1.177 1.177 0 0 1-.477-.396c-.125-.177-.187-.4-.187-.67V8.753Zm4.668 5.844c-.447 0-.832-.099-1.156-.296a1.99 1.99 0 0 1-.745-.833c-.174-.358-.26-.775-.26-1.25s.086-.893.26-1.256c.175-.364.418-.648.73-.85.314-.206.68-.309 1.099-.309.241 0 .48.04.715.121.236.08.45.211.643.392.193.18.347.417.462.713.115.296.172.66.172 1.092v.302h-3.574v-.616h2.85a1.52 1.52 0 0 0-.157-.7 1.183 1.183 0 0 0-.441-.486 1.234 1.234 0 0 0-.67-.178c-.284 0-.53.07-.737.212a1.39 1.39 0 0 0-.474.543c-.11.223-.166.463-.166.718v.41c0 .35.06.648.181.891.123.242.293.426.51.553.218.124.47.187.758.187.187 0 .356-.027.507-.079.153-.054.285-.135.396-.241.11-.109.196-.244.256-.405l.689.193a1.526 1.526 0 0 1-.366.616 1.78 1.78 0 0 1-.634.41 2.35 2.35 0 0 1-.848.146Zm3.716-2.886V14.5h-.712V9.864h.688v.724h.06a1.33 1.33 0 0 1 .495-.567c.222-.145.507-.218.858-.218.313 0 .588.065.823.193.236.127.42.32.55.58.13.258.196.584.196.978V14.5h-.712v-2.898c0-.364-.095-.648-.284-.85-.19-.206-.449-.309-.779-.309-.227 0-.43.05-.61.148a1.058 1.058 0 0 0-.42.432 1.43 1.43 0 0 0-.153.688Zm8.534 2.886c-.419 0-.786-.1-1.102-.3a2.018 2.018 0 0 1-.736-.835c-.175-.358-.263-.777-.263-1.256 0-.483.088-.905.263-1.265.177-.36.422-.64.736-.839.316-.2.683-.299 1.102-.299.418 0 .785.1 1.099.3.316.198.561.478.736.838.177.36.266.782.266 1.265 0 .479-.089.898-.266 1.256-.175.358-.42.636-.736.836a2.01 2.01 0 0 1-1.1.299Zm0-.64c.318 0 .58-.082.785-.245a1.44 1.44 0 0 0 .456-.643 2.47 2.47 0 0 0 .147-.863c0-.31-.049-.599-.147-.866a1.46 1.46 0 0 0-.456-.65c-.206-.164-.467-.247-.785-.247s-.58.083-.785.248a1.46 1.46 0 0 0-.456.649 2.487 2.487 0 0 0-.148.866c0 .31.05.598.148.863.099.266.25.48.456.643.205.163.467.245.785.245Zm3.9-2.246V14.5h-.712V9.864H72v.724h.06c.11-.235.274-.424.496-.567.221-.145.507-.218.857-.218.314 0 .589.065.824.193a1.3 1.3 0 0 1 .55.58c.13.258.196.584.196.978V14.5h-.713v-2.898c0-.364-.094-.648-.284-.85-.189-.206-.448-.309-.778-.309-.228 0-.43.05-.61.148a1.059 1.059 0 0 0-.42.432 1.43 1.43 0 0 0-.154.688ZM39.541 30.5V17.773h4.3c1 0 1.815.18 2.45.54.637.357 1.11.84 1.416 1.448.307.61.46 1.289.46 2.039 0 .75-.153 1.431-.46 2.044-.302.613-.77 1.102-1.404 1.467-.634.36-1.446.54-2.436.54h-3.083v-1.367h3.033c.683 0 1.232-.118 1.647-.354.414-.236.714-.555.9-.957.191-.406.287-.864.287-1.373 0-.51-.096-.966-.286-1.367a2.04 2.04 0 0 0-.908-.945c-.418-.232-.973-.348-1.665-.348h-2.71V30.5h-1.54Zm14.435.199c-.862 0-1.618-.205-2.268-.615-.647-.41-1.152-.984-1.517-1.722-.36-.737-.54-1.599-.54-2.585 0-.994.18-1.862.54-2.604.365-.741.87-1.317 1.517-1.727.65-.41 1.406-.616 2.268-.616.862 0 1.616.205 2.262.616.65.41 1.156.985 1.516 1.727.365.742.547 1.61.547 2.604 0 .986-.182 1.848-.547 2.585-.36.738-.865 1.312-1.516 1.722-.646.41-1.4.615-2.262.615Zm0-1.318c.655 0 1.193-.167 1.616-.503.422-.336.735-.777.938-1.324a5.063 5.063 0 0 0 .305-1.777 5.12 5.12 0 0 0-.305-1.784 3.006 3.006 0 0 0-.938-1.336c-.423-.34-.961-.51-1.616-.51-.655 0-1.193.17-1.616.51-.422.34-.735.785-.938 1.336a5.12 5.12 0 0 0-.305 1.784c0 .638.102 1.23.305 1.777.203.547.516.988.938 1.324.423.336.961.503 1.616.503Zm9.919 1.318c-.796 0-1.498-.201-2.107-.603-.61-.406-1.086-.978-1.43-1.715-.343-.742-.515-1.618-.515-2.629 0-1.002.172-1.872.515-2.61.344-.737.823-1.307 1.436-1.709.613-.402 1.322-.603 2.125-.603.622 0 1.113.104 1.473.311.365.203.642.435.833.696.195.257.346.468.454.634h.124v-4.698h1.466V30.5h-1.416v-1.467h-.174a9.38 9.38 0 0 1-.46.66c-.2.26-.483.494-.852.701-.368.203-.86.305-1.473.305Zm.198-1.318c.589 0 1.086-.153 1.492-.46.406-.31.715-.739.926-1.286.211-.55.317-1.187.317-1.908 0-.712-.104-1.336-.311-1.87-.207-.539-.514-.957-.92-1.256-.406-.302-.907-.453-1.504-.453-.621 0-1.139.16-1.553.478-.41.315-.72.744-.926 1.287-.203.538-.305 1.143-.305 1.814 0 .68.104 1.297.311 1.852.211.551.522.99.932 1.318.415.323.928.484 1.541.484Zm8.283-4.623V30.5h-1.467V17.773h1.467v4.673h.124c.224-.493.56-.885 1.007-1.175.451-.294 1.052-.44 1.802-.44.65 0 1.22.13 1.71.39.488.258.867.653 1.136 1.188.274.53.41 1.205.41 2.026V30.5H77.1v-5.966c0-.758-.197-1.344-.59-1.759-.39-.418-.93-.627-1.623-.627-.48 0-.911.101-1.292.304-.377.203-.675.5-.895.889-.215.39-.323.862-.323 1.417ZM85 30.698c-.92 0-1.713-.202-2.38-.608a4.087 4.087 0 0 1-1.535-1.715c-.357-.738-.535-1.595-.535-2.573s.178-1.84.535-2.585c.36-.75.861-1.334 1.504-1.753.646-.422 1.4-.634 2.262-.634.497 0 .988.083 1.472.249a3.65 3.65 0 0 1 1.324.808c.398.368.715.857.95 1.466.237.61.355 1.36.355 2.25v.621h-7.358v-1.267h5.867a3.13 3.13 0 0 0-.324-1.442 2.435 2.435 0 0 0-.907-1c-.39-.245-.85-.367-1.38-.367-.584 0-1.089.145-1.516.435a2.861 2.861 0 0 0-.975 1.118c-.228.46-.342.953-.342 1.48v.845c0 .72.124 1.332.373 1.833a2.69 2.69 0 0 0 1.05 1.137c.447.257.967.385 1.56.385.385 0 .733-.053 1.044-.161.315-.112.586-.278.814-.497a2.26 2.26 0 0 0 .528-.833l1.417.398c-.15.48-.4.903-.752 1.267a3.67 3.67 0 0 1-1.305.846c-.518.198-1.1.298-1.746.298Zm5.933-.198v-9.546h1.417v1.442h.1c.174-.472.488-.855.944-1.15a2.78 2.78 0 0 1 1.541-.44c.108 0 .243.002.404.006.162.004.284.01.367.018v1.492a4.407 4.407 0 0 0-.342-.056 3.364 3.364 0 0 0-.553-.044c-.464 0-.878.098-1.243.292-.36.191-.646.456-.858.796-.207.335-.31.719-.31 1.15v6.04h-1.467Zm9.849.199c-.862 0-1.618-.205-2.269-.615-.646-.41-1.151-.984-1.516-1.722-.36-.737-.54-1.599-.54-2.585 0-.994.18-1.862.54-2.604.365-.741.87-1.317 1.516-1.727.65-.41 1.407-.616 2.269-.616.861 0 1.615.205 2.262.616.65.41 1.156.985 1.516 1.727.365.742.547 1.61.547 2.604 0 .986-.182 1.848-.547 2.585-.36.738-.866 1.312-1.516 1.722-.647.41-1.401.615-2.262.615Zm0-1.318c.654 0 1.193-.167 1.615-.503.423-.336.736-.777.939-1.324a5.063 5.063 0 0 0 .304-1.777 5.12 5.12 0 0 0-.304-1.784 3.004 3.004 0 0 0-.939-1.336c-.422-.34-.961-.51-1.615-.51-.655 0-1.194.17-1.616.51-.423.34-.736.785-.939 1.336a5.12 5.12 0 0 0-.304 1.784c0 .638.101 1.23.304 1.777.204.547.516.988.939 1.324.422.336.961.503 1.616.503Z"/>
</svg>
